X: 187
T: Zimmermo [Bb]
M: 34/44
L: 1/8
K: Bb
|:"Bb" [B,2D2] [B,D][A,^C] [B,D][DB] | [F4d4] [D2B2] \
| "Eb"[Ec][Ge][G2e2] "Bb"[DB][Fd][F2d2] \
| "Bb" [B,2D2] [B,D][A,^C] [B,D][DB] | [F4d4] [D2B2] \
| "F7"[CA][Ec][E2c2] "Bb"[D2B2]z2 \
::"F7"[A2C2] [AC][BD] [c2E2] | "Bb"[B2D2] [BD][cE] [d2F2] |
| "F7"[A2C2] [AC][BD] [c2E2] | "Bb"[B2D2] [BD][cE] [d2F2] \
| "Bb" [B,2D2] [B,D][A,^C] [B,D][DB] | [F4d4] [D2B2] \
| "Eb"[Ec][Ge][G2e2] "Bb"[DB][Fd][F2d2] \
| "Bb" [B,2D2] [B,D][A,^C] [B,D][DB] | [F4d4] [D2B2] \
| "F7"[CA][Ec][E2c2] "Bb"[D2B2]z2 :|
%%sep 2 1 500
